packages/foundations/assets/icons/functional/images/editing/check_24.svg

<svg width="24" height="24" viewBox="0 0 24 24" fill="none" xmlns="http://www.w3.org/2000/svg">
<g clip-path="url(#clip0_83_123)">
<path fill-rule="evenodd" clip-rule="evenodd" d="M8.32602 17.706L4.28602 13.666C4.19215 13.5782 4.11755 13.472 4.06693 13.3539C4.01632 13.2358 3.99081 13.1084 3.99202 12.98C3.99202 12.416 4.45702 11.975 4.99602 11.975C5.26602 11.975 5.48602 12.073 5.68202 12.269L9.03702 15.575L18.318 6.26897C18.514 6.09797 18.784 5.99997 19.004 5.99997C19.543 5.99997 20.008 6.43997 20.008 6.97997C20.008 7.24897 19.91 7.49397 19.763 7.68997L9.74702 17.706C9.65459 17.8003 9.54405 17.8749 9.42204 17.9255C9.30003 17.976 9.16907 18.0013 9.03702 18C8.90497 18.0013 8.77401 17.976 8.652 17.9255C8.52999 17.8749 8.41845 17.8003 8.32602 17.706Z" fill="#1A1C1F"/>
</g>
<defs>
<clipPath id="clip0_83_123">
<rect width="24" height="24" fill="white"/>
</clipPath>
</defs>
</svg>

<svg xmlns="http://www.w3.org/2000/svg" width="24" height="24" fill="none"><g clip-path="url(#a)"><path fill="#1A1C1F" fill-rule="evenodd" d="m8.326 17.706-4.04-4.04a.93.93 0 0 1-.294-.686c0-.564.465-1.005 1.004-1.005.27 0 .49.098.686.294l3.355 3.306 9.281-9.306c.196-.171.466-.269.686-.269.539 0 1.004.44 1.004.98 0 .269-.098.514-.245.71L9.747 17.706a.98.98 0 0 1-.71.294.98.98 0 0 1-.711-.294" clip-rule="evenodd"/></g><defs><clipPath id="a"><path fill="#fff" d="M0 0h24v24H0z"/></clipPath></defs></svg>
